public/img/user-login.svg

<svg width="26" height="17" viewBox="0 0 26 17" fill="none" xmlns="http://www.w3.org/2000/svg">
<path d="M23.4544 15.9836H2.56241C1.66704 15.9836 0.875215 15.2902 1.40555 14.5688C2.94715 12.4718 8.52261 10.4604 11.8328 9.53399C12.004 9.48611 12.1785 9.46338 12.3562 9.46338H13.6607C13.8384 9.46338 14.0196 9.48807 14.1909 9.53552C20.7003 11.3395 23.5191 13.2386 24.5266 14.5882C25.0622 15.3058 24.3498 15.9836 23.4544 15.9836Z" fill="white" stroke="white"/>
<path d="M17.1084 4.07511C17.1084 5.99438 15.3314 7.65022 13.0085 7.65022C10.6855 7.65022 8.90857 5.99438 8.90857 4.07511C8.90857 2.15584 10.6855 0.5 13.0085 0.5C15.3314 0.5 17.1084 2.15584 17.1084 4.07511Z" fill="white" stroke="white"/>
</svg>

<svg width="26" height="17" fill="none" xmlns="http://www.w3.org/2000/svg"><path d="M23.454 15.984H2.562c-.895 0-1.687-.694-1.156-1.415 1.541-2.097 7.117-4.109 10.427-5.035.171-.048.345-.07.523-.07h1.305c.177 0 .359.024.53.072 6.51 1.803 9.328 3.703 10.336 5.052.535.718-.177 1.396-1.073 1.396zM17.108 4.075c0 1.92-1.777 3.575-4.1 3.575-2.322 0-4.1-1.656-4.1-3.575 0-1.92 1.777-3.575 4.1-3.575 2.323 0 4.1 1.656 4.1 3.575z" fill="#fff" stroke="#fff"/></svg>
